X: 309
T:Trip To Plymouth,A. JaW.308
M:6/8
Q:100
S:James Winder Ms, Lancashire, 1835-41
R:Cotillion
O:England
A:Wyresdale,Lancashire
H:1/8
Z:vmp.Chris Partington, Aug 2004
K:D
A|d2f ecA|B2d AFD|FGA Bcd|efd {d}cBA|!
d2g ecA|B2d AFD|FGA Bcd|{f}edc d2:|!
|:A|e2f ecA|f2g fdA|Bcd|efg|Bed {d}c2A|!
d2f ecA|f2d AFD|FGA Bcd|{f}edc d2:|]
